packages/sights/assets/overlays/fDKWkHHp.svg

<svg width="500" height="375" viewBox="0 0 500 375" fill="none" xmlns="http://www.w3.org/2000/svg">
<path d="M7 93.9399C7 93.9399 57.5 66.4999 69.5 62.4999C69.5 62.4999 195.5 5.4999 362.5 47.4999C362.5 47.4999 416.5 63.4999 490.5 123.5L493 124.43" stroke="white" stroke-miterlimit="10"/>
<path d="M462.9 102.4L492.75 105.86" stroke="white" stroke-miterlimit="10"/>
<path d="M361.18 47.1699C353.86 46.8399 301.5 56.4999 301.5 56.4999C301.5 56.4999 343.5 73.4999 451.5 160.5C451.5 160.5 484.5 158.88 493 150.19" stroke="white" stroke-miterlimit="10"/>
<path d="M7.25 163.34L14.5 177.5L28.5 194.5L29.5 195.5" stroke="white" stroke-miterlimit="10"/>
<path d="M493 293.27C451.5 310.05 443.5 359.5 443.5 359.5L141.5 240.5L100.5 227.5C74.4996 144.5 34.4996 142.5 34.4996 142.5C34.4996 142.5 7.73962 143.42 25.1396 180.73" stroke="white" stroke-miterlimit="10"/>
<path d="M103.5 228.5L82.4995 239.5L76.3795 241.31C63.4995 243.5 46.6895 229.84 34.4595 206.42C21.5295 181.69 20.1795 156.86 31.4595 150.98C35.5669 148.312 40.1733 146.505 44.9995 145.67" stroke="white" stroke-miterlimit="10"/>
<path d="M304.5 147.5V159.5C304.5 159.5 334.5 177.5 375.5 154.5V151.64L378.5 146.5C378.5 146.5 357.5 125.5 341.5 122.98L334.5 123.5C334.5 123.5 312.5 133.5 304.5 147.5Z" stroke="white" stroke-miterlimit="10"/>
<path d="M304.5 147.5C304.5 147.5 339.5 157.5 378.5 146.5" stroke="white" stroke-miterlimit="10"/>
<path d="M339.23 166.21L340.5 169.5C340.5 169.5 352.5 171.5 358.5 170.5C358.5 170.5 369.79 162.59 372.65 156.04" stroke="white" stroke-miterlimit="10"/>
<path d="M371.82 157.61C383.14 160.72 423.38 166.21 423.38 166.21C372.26 108.91 299.5 68.5 299.5 68.5C250.5 45.5 201.88 47.16 201.88 47.16C101.26 47.83 49.5 79.5 49.5 79.5L47.5 84.5C47.5 84.5 54.5 94.5 79.5 102.5C79.5 102.5 302.8 145.84 305.65 145.67" stroke="white" stroke-miterlimit="10"/>
<path d="M423.38 166.21L433.01 193.61V218.22C433.01 218.22 418.5 292.5 410.5 310.5L402.5 329.5L402.06 330.73" stroke="white" stroke-miterlimit="10"/>
<path d="M113.15 56.8301C113.15 56.8301 89.5002 89.5001 86.5002 100.5C86.5002 100.5 81.6102 98.8901 78.5002 102.19C78.5002 102.19 67.7502 114.61 63.6002 117.55L62.4502 131.55C62.4502 131.55 74.4502 175.55 108.45 214.55C113.093 219.378 118.974 222.838 125.45 224.55L427.45 340.55L446.14 349" stroke="white" stroke-miterlimit="10"/>
<path d="M197.28 47.22C197.28 47.22 188.28 105.46 190.87 122.98C190.87 122.98 186.52 153.91 187.51 166.21C187.51 166.21 191.51 208.5 195.51 219.5C195.51 219.5 195.51 226.5 194.51 228.5C194.51 228.5 193.51 248.34 192.99 250.42" stroke="white" stroke-miterlimit="10"/>
<path d="M462.89 316.38C462.89 316.38 460.28 348.18 462.89 355.38L467.25 369.71" stroke="white" stroke-miterlimit="10"/>
<path d="M207.5 157.5L205.5 160.5L206.5 162.65C206.5 162.65 219.5 165.5 221.5 165.5C221.5 165.5 226.5 163.5 227.5 162.5C227.5 162.5 235.45 164.91 234.97 166.21L235.5 169.5L232.5 172.5C232.5 172.5 203.5 168.5 195.5 164.5L193.5 160.5L196.5 155.5C196.5 155.5 206.5 156.5 207.5 157.5Z" stroke="white" stroke-miterlimit="10"/>
<path d="M81.5 130.5L79.5 132.5V134.12C79.5 134.12 86.5 136.5 90.5 135.5C90.5 135.5 94.4 133.75 94.5 133.12C94.5 133.12 98.5 134.5 99.5 136.5V139.5L97.5 141.5C97.5 141.5 79.5 139.5 73.5 136.5L72.5 134.5V132.34L74.22 130.5C74.22 130.5 78.5 129.5 81.5 130.5Z" stroke="white" stroke-miterlimit="10"/>
</svg>

<svg width="500" height="375" fill="none" xmlns="http://www.w3.org/2000/svg"><path d="M7 93.94S57.5 66.5 69.5 62.5c0 0 126-57 293-15 0 0 54 16 128 76l2.5.93M462.9 102.4l29.85 3.46" stroke="#fff" stroke-miterlimit="10"/><path d="M361.18 47.17c-7.32-.33-59.68 9.33-59.68 9.33s42 17 150 104c0 0 33-1.62 41.5-10.31M7.25 163.34l7.25 14.16 14 17 1 1M493 293.27c-41.5 16.78-49.5 66.23-49.5 66.23l-302-119-41-13c-26-83-66-85-66-85s-26.76.92-9.36 38.23" stroke="#fff" stroke-miterlimit="10"/><path d="m103.5 228.5-21 11-6.12 1.81c-12.88 2.19-29.69-11.47-41.92-34.89-12.93-24.73-14.28-49.56-3-55.44A36.18 36.18 0 0 1 45 145.67M304.5 147.5v12s30 18 71-5v-2.86l3-5.14s-21-21-37-23.52l-7 .52s-22 10-30 24Z" stroke="#fff" stroke-miterlimit="10"/><path d="M304.5 147.5s35 10 74-1M339.23 166.21l1.27 3.29s12 2 18 1c0 0 11.29-7.91 14.15-14.46" stroke="#fff" stroke-miterlimit="10"/><path d="M371.82 157.61c11.32 3.11 51.56 8.6 51.56 8.6C372.26 108.91 299.5 68.5 299.5 68.5c-49-23-97.62-21.34-97.62-21.34C101.26 47.83 49.5 79.5 49.5 79.5l-2 5s7 10 32 18c0 0 223.3 43.34 226.15 43.17M423.38 166.21l9.63 27.4v24.61S418.5 292.5 410.5 310.5l-8 19-.44 1.23" stroke="#fff" stroke-miterlimit="10"/><path d="M113.15 56.83S89.5 89.5 86.5 100.5c0 0-4.89-1.61-8 1.69 0 0-10.75 12.42-14.9 15.36l-1.15 14s12 44 46 83a36.545 36.545 0 0 0 17 10l302 116 18.69 8.45" stroke="#fff" stroke-miterlimit="10"/><path d="M197.28 47.22s-9 58.24-6.41 75.76c0 0-4.35 30.93-3.36 43.23 0 0 4 42.29 8 53.29 0 0 0 7-1 9 0 0-1 19.84-1.52 21.92M462.89 316.38s-2.61 31.8 0 39l4.36 14.33" stroke="#fff" stroke-miterlimit="10"/><path d="m207.5 157.5-2 3 1 2.15s13 2.85 15 2.85c0 0 5-2 6-3 0 0 7.95 2.41 7.47 3.71l.53 3.29-3 3s-29-4-37-8l-2-4 3-5s10 1 11 2ZM81.5 130.5l-2 2v1.62s7 2.38 11 1.38c0 0 3.9-1.75 4-2.38 0 0 4 1.38 5 3.38v3l-2 2s-18-2-24-5l-1-2v-2.16l1.72-1.84s4.28-1 7.28 0Z" stroke="#fff" stroke-miterlimit="10"/></svg>
